X:1
T:Title
%%score [ 1 2 3 4 ]
L:1/8
Q:1/4=120
M:2/2
K:F
V:1 treble nm="MusicXML Part"
V:2 treble-8 nm="MusicXML Part"
V:3 treble-8 nm="MusicXML Part"
V:4 bass nm="MusicXML Part"
V:1
 z8 | z8 |"^Magnificat Secundi Toni \"Anima mea\"" z8 |"^Christobal de Morales" B4 B2 B2 | B4 A4- | %5
w: |||A- ni- ma|me- a|
 A4 F2"^1545" G2 |[M:2/2] G8- |"^Et exultavit spiritus meus\nin deo salutari meo." G8- | G8 || %9
w: * do- mi-|­num.|||
[M:2/2] z8 | z8 | z8 | z8 | z8 | F4 G4 | F4 B4 |[M:2/2] A4 B4 | c4 d4 | c2 A3 BcA | BG B4 A2 | %20
w: |||||Qui- a|re- *|­spe- xit|hu- mi-|li- ta- * * *||
 B2 c2 d2 c2- | cB B4 A2 | B2 F2 G2 A2- | AG G4 F2 | G4 z2 F2 | G2 A2 B4- | B2 A2 B2 c2 | F8 | z8 | %29
w: tem an- cil- lae|* * su *|­ae. Ec- ce, e-||nim ex|hoc be- a-|* tam me di-|cent,||
 z2 F2 G2 A2 | B6 A2 | B2 c3 B B2- | B2 A2 B4 | z2 B4 B2 | B2 B2 B4- | B4 A4 | F2 G3 F F2 | G4 z4 | %38
w: ex hoc be-|a- tam|me di * *|* * cent|om- nes|ge- ne- ra-|* ti-|o- * * *|nes,|
 z2 B4 B2 | B4 B4 | B6 A2 | F2 G3 ^F F2 | G8- | %43
w: om- nes|ge- ne-|­ra- ti-|o * * *|nes.|
"^Quia fecit mihi \nmagna, qui potens \nest et sanctum \nnomen eius." G8 ||[M:2/2] F8 | G8 | %46
w: |Et|mi-|
 F4 B4- | B2 B2 B4 | B2 B2 B4 | B8 |[M:2/2] z4 B4- | B2 B2 B2 B2 | B8 | z4 B4 | B4 c4- | %55
w: se- *|* ri- cor-|di- a e-|ius|a|* pro- ge- ni-|e|in|pro- ge-|
 c2 B2 B4- | B2 AG A4 | B4 z2 B2 | B4- B2 A2 | A4 F4 | G4 z4 | z8 | z4 z2 B2 | B6 A2 | A4 F2 B2 | %65
w: |* * * ni-|es ti-|men- * ti-|bus e-|­um,||ti-|men- ti-|bus e *|
 A2 G3 F F2 | G2 B2 A2 F2 | G4 F3 G | AB c3 A c2- | c2 BA B4 | A2 G2 G4- | G2 FE FG A2- | %72
w: |­um, ti- men- ti-|bus e- *|||um, ti- men-|* ti- bus * * e-|
 AG G4 ^F2 |"^Fecit potentiam in brachio\nsuo. Dispersit superbos\nmente cordis sui." G8 || %74
w: |um.|
[M:2/2] D8 | F8- | F4 G4 | A8 | A4 d4- | d4 c4 | B3 c d2 c2- |[M:2/2] cB B4 A2 | B4 z2 B2 | %83
w: De-|po-|* su-|it|po- ten-|* tes|de * * se-||de et|
 B2 B2 B2 AG | A2 B2 G2 A2- | AG G4 ^F2 | G4 z2 B2 | B2 B2 B4 | A4 G2 G2- | G^F F2 G4 | %90
w: ex- al- ta- * *|* * vit hu|* * * mi-|les, et|ex- al- ta-|vit hu- mi-|* * * les,|
 z2 B2 B2 B2 | A3 B c2 d2- | dc B4 AG | A2 B2 A2 G2- | G2 FE FG A2- | AG G4 ^F2 | %96
w: et ex- al-|ta- * * *||* vit hu *||* * * mi-|
"^Esurientes implevit \nbonis et divites \ndimisit inanes." G8 ||[M:2/2] z8 | z8 | z8 | z8 | z8 | %102
w: les.||||||
[M:2/2] z8 | z8 | z8 | z8 | z8 | z8 | z8 | z8 | z8 | z8 | z8 | z8 | z8 | z8 | z8 | z8 | z8 | z8 | %120
w: ||||||||||||||||||
 z8 | z8 | z8 | z8 |[M:2/2] F8- | F8 | G8- | G8 | F8 | B8 | B8 | B8 |[M:2/2] z4 B4- | B4 c4- | %134
w: ||||Glo-||ri-||a||pa-|tri|et|* fi-|
 c2 B2 B4- | B2 AG A4 | B8 | z4 B4 | B4 B4 | B8 | A8 | F8 | G8 | z4 B4 | B4 B4 | B4 A4- | A4 F4 | %147
w: |* * * li-|o|et|spi- ri-|­tu-|i|sanc-|to,|et|spi- ri-|tu- i|* sanc-|
 G6 B2 | A2 G2 G4- | G2 ^FE F4 | %150
w: |||
"^Sicut erat in principio\net nunc et semper et in\nsaecula saeculorum.\nAmen." G8 |] %151
w: to.|
V:2
 B4 B2 B2 | B4 A4- | A4 F2 G2 | G8 | z2 d2 f2 f2 | e4 d4- |[M:2/2] d2 c2 e4 | d8- | d8 || %9
w: A- ni- ma|me- a|* do- mi-|num,|a- ni- ma|me- a|* do- mi-|num.||
[M:2/2] z8 | z8 | z8 | B4 c4 | B4 _e4 | d4 c2 B2- | B2 A2 G4 |[M:2/2] F2 f2 d2 e2 | f6 d2 | %18
w: |||Qui- a|re- *|spe- * *||­xit hu- mi- li-|ta- tem|
 e2 f4 e2 | g2 d2 f4 | d2 f4 f2 | d2 e2 f4 | d6 c2 | d2 e3 d d2- | d2 c2 d4 | z2 c2 d2 e2 | %26
w: an- cil- lae|su * *|ae, an- cil-|lae su- ae.|Ec- ce,|e * * *|* * nim|ex hoc be-|
 f4 _e4 | d6 c2 | B2 f2 _e2 d2 | d3 c de f2- | f2 f2 f4 | d2 g3 fde | f4 z2 d2- | d2 G2 d3 c | %34
w: a- tam|me di-|­cent, ex hoc be-|a- * * * tam|* me di-||cent om-|* nes ge- ne-|
 BA B3 AGF | G4 F3 G | A2 G2 z2 d2- | d2 G2 c3 c | B2 G2 d4 | G4 d4 | G2 d4 d2 | d2 d2 d4- | %42
w: ­ra * * ti * *|o- * *|* nes, om-|* nes ge- ne-|ra- ti- o-|nes, om-|­nes ge- ne-|ra- ti- o-|
 d2 B2 _e4 | d8 ||[M:2/2] d8 | _e8 | d6 B2 | B3 A Bcde | f2 g2 d2 g2- | g2 fe d3 e | %50
w: |nes.|Et|mi-|se- ri-|cor- * * * * *|* di- a e-||
[M:2/2] f4 _e4 | d8 | z2 f4 d2 | e2 f4 g2- | gf d2 e2 f2 | e2 d2 g4 | f4 z2 f2 | f6 d2 | %58
w: |ius|a pro-|ge- * ni-|* * e in pro-|­ge- * ni-|es ti-|men- ti-|
 d3 c de f2- | f2 e2 d4- | d4 z4 | z8 | z4 z2 d2 | d2 B2 c4 | d6 f2 | e4 z2 d2 | d2 B2 c2 d2 | %67
w: bus * * * e-|* * um,|||ti-|men- ti- bus|e- *|um, ti-|­men- ti- bus e|
 GABc de f2- | f2 ed c3 d | e2 d4 g2 | f2 d2 _e4 | d8 | B2 c2 d4- | d8 ||[M:2/2] z8 | c8 | d8 | %77
w: ||* um, ti-|men- ti- bus|e-|* * um.|||De-|po-|
 c4 f4 | f8 | f4 f4- | f2 f2 f4 |[M:2/2] g4 f4- | f4 z2 f2 | f2 f2 f4- | f4 e4 | c4 d4 | d8 | %87
w: su- *|it|po- ten-|* tes de|se- de|* et|ex- al- ta-|* vit|hu- mi-|les,|
 z2 f2 f2 f2 | f4 e4 | c2 d2 d4- | d4 z4 | f4 f4- | f2 f2 f4- | f4 e4 | c2 d2 d4- | d8- | d8 || %97
w: et ex- al-|ta- vit|hu- mi- les,||et ex-|* al- ta-|* vit|hu- mi- les.|||
[M:2/2] B4 c4 | B3 c de f2- | fedc d2 c2- | c2 B2 c4 | d6 G2 |[M:2/2] G2 d3 cBA | GF fe dc B2- | %104
w: Sus- ce-|pit * * * Is-||* ra- el|pu- e-|­rum su * * *||
 B2 AG A2 G2- | G2 F2 G2 B2- | B2 AG A4 | B4 f4- | f2 _e2 d2 c2 | B2 A2 G2 F2 | G4 z2 G2 | %111
w: |||­um re-|* cor- da- *||tus mi-|
 G2 G2 G4- | G2 F2 F3 G | AB c3 A c2 | BABc d4 | z2 d2 d2 d2 | d6 c2 | BA d4 cB | c4 d4 | %119
w: se- ri- cor-|* di- ae *||su- * * * ae,|mi- se- ri-|cor- di-|ae * su * *|* ae,|
 z2 f2 f2 f2 | f3 e/d/ c2 d2 | c2 A4 B2- | B2 AG A4 | G8 |[M:2/2] d8 | B4 c4 | d8 | _e8 | d8 | %129
w: mi- se- ri-|cor- * * * di-|ae su- *||ae.|Glo-|ri- a|pa-|tri|et|
 d4 B4- | B2 AG G4 | g6 f2 |[M:2/2] _e4 d4 | f8 | g8 | f4 c4 | d4 G4- | G2 A2 B4- | B2 G2 B3 c | %139
w: fi- li-|* * * o|et spi-|­ri- tu-|i|sanc-|to, et|spi- ri-|* tu- i|* sanc * *|
 d8- | d8- | d8 | B4 _e4- | e4 d4 | d8- | d8 | c8 | d8 | _e8 | d8- | d8 |] %151
w: ­to,|||et spi-|* ri-|tu-||i|sanc-||to.||
V:3
 z8 | z8 | z8 | B3 c d2 _e2 | d2 B2 c2 d2- | d2 cB A2 B2- |[M:2/2] B2 G2 c4- | c2 BA B4- | B8 || %9
w: |||A * * ni-|ma me * *|* * * a do-|* mi- num.|||
[M:2/2] z8 | F4 G4 | F4 B4- | B2 G2 A2 G2- | GF B4 A2 | B4 z2 d2- | d2 c2 d2 _e2 | %16
w: |Qui- a|re- *|* spe- * *||xit hu-|* * mi- li-|
[M:2/2] c2 d3 c B2- | B2 A2 B4 | c4 c2 c2 | d2 B2 c2 d2- | dc A2 B2 A2 | B4 c4 | B6 A2 | B2 c2 A4 | %24
w: ­ta * * *|* * tem|an- cil- lae|su- * * *|||||
 G4 B4- | B2 A2 G4 | F4 z4 | z4 z2 F2 | G2 A2 B4- | B2 A2 B2 c2 | d6 c2 | B2 _e2 d2 B2 | c4 B4- | %33
w: ae. Ec-|* ce, e-|nim|ex|hoc be- a-|* tam me di-|||* cent|
 B4 z2 d2- | d2 G2 d3 d | d2 B2 c2 d2- | dcBA/G/ A4 | G2 G4 F2 | G2 d4 G2 | d3 c BA B2- | %40
w: * om-|* nes ge- ne-|ra * * *||ti- o- *|nes, om- nes|ge- ne- ra * *|
 BAGF G2 F2 | A2 B2 A4 | G8- | G8 ||[M:2/2] B8 | B4 c4 | A2 B3 c d2- | dB _e2 d2 G2 | d4 B2 _e2- | %49
w: |* ti- o-|nes.||Et|mi- se-|ri- cor * *|* di- a e- ius|a pro- ge-|
 e2 d4 B2 |[M:2/2] c2 d2 G4- | G2 F2 F2 f2- | f_edc d4 | B2 c2 d4- | d4 c2 F2 | c2 d2 _e3 d | %56
w: |* ni- e|* in pro- ge|||||
 c2 d2 c4 | z2 B2 B4- | B2 G2 G2 d2- | d2 cB A4 | z2 B2 B4- | B2 A2 A4 | F4 G4- | G2 G2 F3 E | %64
w: * ni- es|ti- men-|* ti- bus e-|* * * um,|ti- men-|* ti- bus|e- um,|* ti- men- ti-|
 D4 d4 | c3 B A4 | G4 z2 B2 | B6 A2 | A4 F4 | G8 | z2 B2 B4- | B2 A2 A2 F2 | G4 A4 | G8 || %74
w: bus e-||­um, ti-|men- ti-|bus e-|um,|ti- men-|* ti- bus e-||um.|
[M:2/2] B4 B4- | B2 AG A4 | B8 | A3 B c2 d2- | dc A2 B4- | B4 F4 | z2 d2 B2 c2 |[M:2/2] d2 _e2 c4 | %82
w: De- po-|* * * su-|it|po- * * ten||* tes|de se *||
 B2 d2 d2 d2 | d8 | c2 d2 c2 c2- | cB G2 A4 | G2 B2 B2 B2 | d8 | c4 c3 B | A4 G2 B2 | B2 B2 d4- | %91
w: de et ex- al-|ta-|vit hu- mi *||les, et ex- al-|­ta-|vit hu- *|mi- les, et|ex- al- ta-|
 d2 c2 c2 B2 | d4 c4- | c2 d2 c3 B | G2 B2 A2 F2 | B4 A4 | G8 ||[M:2/2] z8 | z8 | z4 F4 | G4 F4 | %101
w: * vit hu *||||* mi-|les.|||Sus-|ce- pit|
 B6 B2 |[M:2/2] B4 B4 | B4 B4 | c8 | B8 | z8 | z8 | z4 B4- | B4 B4 | B4 B4 | z2 B2 B2 B2 | B6 A2 | %113
w: Is- ra-|­el pu-|e- rum|su-|um|||re-|­ cor-|da- tus|mi- se- ri-|cor- di-|
 A4 F4 | G4 z2 B2 | B2 B2 B4- | B2 A2 A4 | F4 G4- | G4 z2 B2 | B2 B2 B4- | B2 A2 A4- | A4 F4 | %122
w: ­ae su-|ae, mi-|se- ri- cor-|* di- ae|su- ae,|* mi-|se- ri- cor-|* di- ae|* su-|
 G2 G3 F F2 | G8 |[M:2/2] B8 | d4 c4- | c2 BA B4 | c8 | A4 B4- | B2 c2 d4- | d2 c2 B2 A2 | B4 G4- | %132
w: |ae.|Glo-|ri- a|* * * pa-|tri|et fi-||||
[M:2/2] G2 A2 B2 c2 | d4 c4 | d4 _e4 | c4 f4- | f2 _e2 d2 c2 | B2 A2 G2 F2 | G6 F2 | F4 G4- | %140
w: ||* li-|o et|* spi- ri- tu-|i * * *|sanc- *||
 G2 FE F3 G | A4 B4- | B4 G4 | _E4 F4 | G4 D4- | D2 E2 F2 G2 | A2 B2 c4- | c4 B4 | c8 | A8 | G8 |] %151
w: ||||to et|* spi- ri- tu-|i * sanc-||||to.|
V:4
 B,,3 C, D,2 _E,2 | D,2 B,,2 C,2 D,2- | D,2 C,B,, A,,2 G,,2 | G,,8 | G,4 F,2 D,2 | A,4 D,2 G,2- | %6
w: A * * ni-|ma me- a do-|* * * * mi-|num,|a- ni- ma|me- a do-|
[M:2/2] G,F,E,D, C,4 | G,,8- | G,,8 ||[M:2/2] B,,4 C,4 | B,,4 _E,4 | D,3 C, D,2 _E,2- | %12
w: * * * * mi-|num.||Qui- a|re- *|spe * * *|
 E,F, G,2 F,2 _E,2- | E,2 D,2 C,4 | B,,4 z4 | z2 F,4 _E,2 |[M:2/2] F,2 D,2 G,4 | F,4 B,,2 B,2 | %18
w: ||xit|hu- mi-|­li- * ta-|* tem an-|
 A,2 F,2"^© Michael Wendel 2006\nThis edition may be freely duplicated, distributed, performed or recorded for non-profit performance or use.\n" A,4 | %19
w: cil- lae su-|
 G,4 F,4 | G,2 F,2 B,,2 F,2 | G,4 F,4 | B,,4 z4 | z2 C,4 D,2 | _E,4 B,,4 | z8 | z2 F,2 G,2 A,2 | %27
w: ae, an-|cil- lae su *||­ae.|Ec- ce,|e- nim||ex hoc be-|
 B,6 A,2 | B,2 F,2 G,3 F, | D,4 G,2 F,2 | B,,2 B,3 A, F,2 | G,2 C,2 G,4 | F,4 B,,4 | z8 | z8 | %35
w: a- tam|me di * *||cent, be- * *|a- tam me|di- cent|||
 z4 z2 D,2- | D,2 G,,2 D,3 C, | B,,2 C,2 A,,4 | G,,8 | z8 | z4 z2 D,2- | D,2 G,,2 D,3 C, | %42
w: om-|* nes ge- ne-|ra- ti- o-|nes,||om-|* nes ge- ne-|
 B,,2 G,,2 C,4 | G,,8 ||[M:2/2] B,,8 | _E,4 C,2 C,2 | D,4 B,,2 G,,2 | G,3 F, G,A, B,2- | %48
w: ra- ti- o-|nes.|Et|mi- se- ri-|cor- di- a|e- * * * *|
 B,A,G,F, G,4 | z4 G,4 |[M:2/2] F,2 D,2 _E,3 D, | B,,8 | B,8 | G,2 A,2 B,2 G,2- | G,A, B,4 A,G, | %55
w: * * * * ius|a|pro- * ge- ni-|e|in|pro- * ge- ni||
 A,2 B,2 _E,4 | F,8 | B,,8 | z8 | z4 D,4 | G,3 F,/E,/ D,2 _E,2 | B,,2 D,4 C,B,, | A,,4 G,,4- | %63
w: ||es||ti-|­men * * * ti-|bus e * *|* um,|
 G,,4 z4 | z2 D,2 D,2 B,,2 | C,4 D,4 | G,,2 G,2 F,2 B,,2 | _E,3 D,/C,/ B,,2 D,2- | D,2 C,B,, A,,4 | %69
w: |ti- men- ti-|bus e-|­um, ti- men- ti-|bus * * * e-||
 G,,2 G,2 G,2 _E,2 | F,2 G,2 _E,3 D, | B,,2 D,2 D,2 D,2 | _E,4 D,4 | G,,8 ||[M:2/2] G,8 | F,8 | %76
w: um, ti- men- ti-|bus e * *|­um, ti- men- ti-|bus e-|um.|De-|po-|
 B,,8 | F,6 D,2 | D,4 B,,4 | z2 B,4 A,2 | B,6 A,2 |[M:2/2] G,2 _E,2 F,4 | B,,2 B,2 B,2 B,2 | %83
w: su-|it po-|ten- tes|de se-|||de et ex- al-|
 B,4 B,,C,D,E, | F,2 B,,2 C,4 | _E,4 D,4 | z2 G,2 G,2 G,2 | B,8 | F,4 z4 | z2 D,2 G,2 G,2 | G,8 | %91
w: ta- vit * * *|* hu- mi-|* les,|et ex- al-|­ta-|vit,|et ex- al-|ta-|
 F,3 G, A,2 B,2 | B,,C,D,E, F,4- | F,2 B,,2 C,3 D, | E,2 D,2 D,4 | G,,A,,B,,C, D,4 | G,,8 || %97
w: vit * hu- *|mi * * * les,|* et ex- al-|ta- vit hu-||les.|
[M:2/2] z4 F,4 | G,4 F,3 G, | A,2 B,4 A,2 | G,2 B,4 A,2 | G,3 F, D,2 _E,2- | %102
w: Sus-|ce- pit *|* Is- ra-|el pu- e-|rum * * su-|
[M:2/2] E,2 D,C, B,,2 _E,2- | E,2 D,2 B,,4 | F,6 _E,D, | _E,2 D,2 E,3 D, | C,8 | B,,8 | B,6 A,2 | %109
w: * * * um, pu-|* e- rum|su- * *|||­um|re- cor-|
 G,2 F,2 _E,2 D,2 | _E,3 D,/C,/ B,,2 E,2 | _E,2 E,2 E,4- | E,2 D,2 D,4- | D,2 C,B,, A,,4 | %114
w: da * * *|* * * tus mi-|se- ri- cor-|* di- ae|* * * su-|
 G,,4 z2 G,2 | G,2 G,2 G,4- | G,2 F,2 F,4 | D,4 _E,4- | %118
w: ae, mi-|se- ri- cor-|* di- ae|su- *|
"^Sicut locutus est ad patres nostros, Abraham et semini\neius in saecula." E,4 B,,4- | B,,4 z4 | %120
w: * ae,||
 z2 F,2 F,2 F,2 | F,3 E, D,2 B,,2 | _E,4 D,4 | G,,8 |[M:2/2] B,,8 | B,4 A,4 | G,8 | C,8 | %128
w: mi- se- ri-|cor * * di-|ae su-|ae.|Glo-|ri- a|pa-|tri|
 D,4 B,,4- | B,,2 A,,G,, G,,4 | G,6 F,2 | _E,2 D,2 E,3 D, |[M:2/2] C,4 B,,4 | B,4 A,4 | G,4 _E,4 | %135
w: et fi-|* li- * o,|et fi||­li- o,|et fi-|* li-|
 F,8 | B,6 A,2 | G,2 F,2 _E,2 D,2 | _E,6 D,C, | B,,4 G,,4 | D,8 | D,4 B,,4 | _E,6 D,2 | C,4 B,,4 | %144
w: o|et spi-|ri- tu- i *|sanc- * *|* to,|et|spi- ri-|tu- i|sanc- to,|
 G,,6 A,,2 | B,,2 C,2 D,2 E,2 | F,2 G,2 A,4 | G,8 | C,8 | D,8 | G,,8 |] %151
w: et spi-|ri- tu- i sanc||­to,|sanc-||to.|

